X: 37150
T: Siobhan O'Donnell's
R: jig
M: 6/8
K: Dmajor
A||def ABG|EFD B=cA|dcd ~f3|gec Ace|
def A2G|EFD B=cA|dcd f/g/af|gec d2A|
def A2G|EFD B=cA|~d3 faf|gec Ace|
def ecA|dAF AFD|~d3 faf|gec Ade||
~f3 dff|gec Ace|~f3 ~g3|ecA A2=c|
[1 BGB BgB|AFA AfA|GFG ~f3|gec dag:|
[2 ~B3 gBg|~A3 fAf|GFG faf|gec d2||

